X: 1501
M: 2/4
L: 1/16
K: Eb
V: 1 nm="Eb BUGLE"\
K: C
|: ef |\
g2gf e2g2 | g2gf e2e2 | f2fe d2f2 | a2g2 e4 |!ff!\
g2gf e2g2 | g2gf e2e2 | c2B2c2d2 | c4 z2 :|\
|: ((3GAB) |\
c4 e4 | g4 z2cc | c2gg g2ee | e2c2 z2G2 |
|: E2 |\
V: 2
K: F
"Bb BUGLE"\
|: fg |\
a2ag f2a2 | a2ag f2f2 | g2gf e2g2 | b2a2 f4 |!ff!\
a2ag f2a2 | a2ag f2f2 | f2e2f2e2 | f4 z2 :|\
|: z2 |\
d2e2f2g2 | f2g2a2b2 | a4 g2g2 | f4 z2 H:|
|: A2 |\
d^cde fefg | a2a2 e4 | a2e2 a3g | gfef d2A2 |\
d^cde fefg | a2a2 e4 | a2e2 agfe | d4 z2 :|
V: 3
K: F
"Bb POST HORN"\
|: AB |\
c2cB A2f2 | c2cB A2c2 | B2BA G2B2 | d2c2 A4 |!ff!\
c2cB A2f2 | c2cB A2c2 | A2B2A2B2 | A4 z2 :|\
|: z2 |\
|: z2 |\
V: 4
K: Eb clef=bass middle=D
"TENOR TROMBONE"\
|: z2 |\
E2B2G2B2 | E2B2G2E2 | B4 B4 | G2B2 e4 |!ff!\
e4 e4 | B4 G4 | e2B2e2B2 | e4 z2 :|\
|: z2 |\
E4 G4 | B4 z2ee | e2BB B2GG | G2E2 z2G2 |
|: z2 |\
V: 5
K: Eb clef=bass middle=d
"BASE TROMBONE"\
|: z2 |\
e2z2 e2z2 | e2b2g2e2 | B4 b4 | e2B2 e4 |!ff!\
e4 g4 | b4 g4 | e4 B2B2 | e4 z2 :|\
|: z2 |\
e4 e4 | e4 z2ee | e2z2 e2z2 | e2e2 z2B2 |
c2d2e2f2 | g2a2b2c'2 | b4 B2B2 | e4 z2 H:|\
|: z2 |\
c4 c4 | c2c2 c4 | e4 e2f2 | g2f2e2d2 |\
c2d2 e2f2 | g2g2 d4 | g4 g2g2 | c4 z2 :|
V: 6
K: Eb clef=bass middle=d
"OPHICLEIDE"\
|: z2 |\
E2z2 E2z2 | E2e2G2E2 | B2d2f2a2 | g2b2 e4 |!ff!\
e4 e4 | e2b2g2e2 | e4 B2B2 | E4 z2 :|\
|: z2 |\
E4 G4 | B4 z2ee | e2z2 E2z2 | G2E2 z2B2 |
c2d2e2f2 | g2a2b2c'2 | b4 b2B2 | e4 z2 H:|\
|: z2 |\
c4 c4 | c4 c2c2 | G4 G2G2 | c4 z2 :|
V: 7
K: C clef=bass middle=d
"DRUM"\
|: z2 |\
c4 z4 | c4 z4 | c4 z4 | c2c2 c2z2 |!ff!\
c2c2 c4 | c2c2 c4 | c4 c2c2 | c4 z2 :|\
|: z2 |\
c4 c4 | c4 z4 | c4 c2c2 | c2c2 z4 |
z8 | z8 | c4 c2c2 | c4 z2 H:|\
|: z2 |\
c4 z4 | c4 z4 | c2c2 c4 | c4 z4 |\
c4 c2c2 | c4 z4 | c4 z4 | c4 z2 :|

